plasma/desktoptheme/Monochrome/icons/juk.svg

<svg width="32" height="32" version="1" xmlns="http://www.w3.org/2000/svg">
 <g id="22-22-juk" transform="translate(32,10)">
  <rect width="22" height="22" style="opacity:.00100002"/>
  <path d="m8 8v6.050781c-0.1645378-0.033679-0.3320507-0.050692-0.5-0.050781-1.3807119 0-2.5 1.119288-2.5 2.5s1.1192881 2.5 2.5 2.5 2.5-1.119288 2.5-2.5v-8.5l5-1v4.050781c-0.164538-0.033679-0.332051-0.050692-0.5-0.050781-1.380712 0-2.5 1.119288-2.5 2.5s1.119288 2.5 2.5 2.5 2.5-1.119288 2.5-2.5v-6.5c-8.72e-4 -2.5818515-0.193689-2.7609843-1.980304-2.5599325l-5.142331 1.1427403c-1.8104463 0.5287789-1.877365 0.5146863-1.877365 2.4171922z" style="fill:#aaaaac"/>
 </g>
 <g id="juk">
  <rect width="32" height="32" style="opacity:.00100002"/>
  <g transform="translate(-8.7971319e-6)">
   <path d="m27.005399 4.1200596-14.975053 3.4524991c-2.1107573 0.2660768-2.030346 2.4274413-2.030346 2.4274413v9.214844c-0.4876926-0.140479-0.9924823-0.21278-1.5-0.214844-3.0375661 0-5.5 2.462434-5.5 5.5s2.4624339 5.5 5.5 5.5c2.842824-0.0014 5.216171-2.168948 5.474609-5h0.025391v-13.841797l11-2.6162626v7.6729036c-0.487693-0.140479-0.992482-0.21278-1.5-0.214844-3.037566 0-5.5 2.462434-5.5 5.5s2.462434 5.5 5.5 5.5c2.842824-0.0014 5.216171-2.168948 5.474609-5h0.025391v-16s0.02603-2.3053357-1.994601-1.8799404z" style="opacity:.2"/>
   <path d="m27.005399 3.1200596-14.975053 3.4524991c-2.1107573 0.2660768-2.030346 2.4274413-2.030346 2.4274413v9.214844c-0.4876926-0.140479-0.9924823-0.21278-1.5-0.214844-3.0375661 0-5.5 2.462434-5.5 5.5s2.4624339 5.5 5.5 5.5c2.842824-0.0014 5.216171-2.168948 5.474609-5h0.025391v-13.841797l11-2.6162626v7.6729036c-0.487693-0.140479-0.992482-0.21278-1.5-0.214844-3.037566 0-5.5 2.462434-5.5 5.5s2.462434 5.5 5.5 5.5c2.842824-0.0014 5.216171-2.168948 5.474609-5h0.025391v-16s0.02603-2.3053357-1.994601-1.8799404z" style="fill:#5fbb20"/>
   <path d="m 27.361328,3.0703125 c -0.110806,0.00648 -0.229179,0.022241 -0.355469,0.048828 L 12.03125,6.5722656 C 9.9204927,6.8383424 10,9 10,9 v 1 C 10,10 9.920493,7.8383424 12.03125,7.5722656 L 27.005859,4.1191406 C 29.02649,3.6937453 29,6 29,6 V 5 C 29,5 29.02342,2.9730693 27.361328,3.0703125 Z M 23.5,15 c -3.037566,0 -5.5,2.462434 -5.5,5.5 0,0.168742 0.01052,0.335131 0.02539,0.5 0.252886,-2.802974 2.605785,-5 5.474609,-5 0.507518,0.0021 1.012307,0.07437 1.5,0.214844 v -1 C 24.512307,15.074365 24.007518,15.002064 23.5,15 Z m -15,3 C 5.4624339,18 3,20.462434 3,23.5 3,23.668742 3.010516,23.835131 3.0253906,24 3.2782771,21.197026 5.6311762,19 8.5,19 c 0.5075177,0.0021 1.0123074,0.07437 1.5,0.214844 v -1 C 9.5123074,18.074365 9.0075177,18.002064 8.5,18 Z" style="fill:#ffffff;opacity:.2"/>
  </g>
 </g>
</svg>

<svg xmlns="http://www.w3.org/2000/svg" width="32" height="32" version="1">
 <g id="22-22-juk" transform="translate(32,10)">
  <rect style="opacity:0.001" width="22" height="22" x="0" y="0"/>
  <g transform="translate(0,7)">
   <path style="fill:#aaaaac" d="M 8,1 V 7.050781 C 7.8354622,7.017102 7.6679493,7.000089 7.5,7 6.1192881,7 5,8.119288 5,9.5 5,10.880712 6.1192881,12 7.5,12 8.8807119,12 10,10.880712 10,9.5 V 1 L 15,0 V 4.0507812 C 14.835462,4.0171022 14.667949,4.0000892 14.5,4 13.119288,4 12,5.1192881 12,6.5 12,7.880712 13.119288,9 14.5,9 15.880712,9 17,7.880712 17,6.5 V 0 c -8.72e-4,-2.5818515 -0.193689,-2.7609843 -1.980304,-2.5599325 L 9.877365,-1.4171922 C 8.0669187,-0.88841333 8,-0.90250587 8,1 Z"/>
  </g>
 </g>
 <g id="juk">
  <rect style="opacity:0.001" width="32" height="32" x="0" y="0"/>
  <g transform="translate(-8.7971319e-6)">
   <path style="opacity:0.2" d="M 27.005399,4.1200596 12.030346,7.5725587 C 9.9195887,7.8386355 10,10 10,10 v 2 7.214844 C 9.5123074,19.074365 9.0075177,19.002064 8.5,19 5.4624339,19 3,21.462434 3,24.5 3,27.537566 5.4624339,30 8.5,30 c 2.842824,-0.0014 5.216171,-2.168948 5.474609,-5 H 14 V 24.5 11.158203 L 25,8.5419404 V 16.214844 C 24.512307,16.074365 24.007518,16.002064 23.5,16 20.462434,16 18,18.462434 18,21.5 c 0,3.037566 2.462434,5.5 5.5,5.5 2.842824,-0.0014 5.216171,-2.168948 5.474609,-5 H 29 V 7.7001435 6 c 0,0 0.02603,-2.3053357 -1.994601,-1.8799404 z"/>
   <path style="fill:#5fbb20" d="M 27.005399,3.1200596 12.030346,6.5725587 C 9.9195887,6.8386355 10,9 10,9 v 2 7.214844 C 9.5123074,18.074365 9.0075177,18.002064 8.5,18 5.4624339,18 3,20.462434 3,23.5 3,26.537566 5.4624339,29 8.5,29 c 2.842824,-0.0014 5.216171,-2.168948 5.474609,-5 H 14 V 23.5 10.158203 L 25,7.5419404 V 15.214844 C 24.512307,15.074365 24.007518,15.002064 23.5,15 20.462434,15 18,17.462434 18,20.5 c 0,3.037566 2.462434,5.5 5.5,5.5 2.842824,-0.0014 5.216171,-2.168948 5.474609,-5 H 29 V 6.7001435 5 c 0,0 0.02603,-2.3053357 -1.994601,-1.8799404 z"/>
   <path style="opacity:0.2;fill:#ffffff" d="m 27.361328,3.0703125 c -0.110806,0.00648 -0.229179,0.022241 -0.355469,0.048828 L 12.03125,6.5722656 C 9.9204927,6.8383424 10,9 10,9 v 1 C 10,10 9.920493,7.8383424 12.03125,7.5722656 L 27.005859,4.1191406 C 29.02649,3.6937453 29,6 29,6 V 5 C 29,5 29.02342,2.9730693 27.361328,3.0703125 Z M 23.5,15 c -3.037566,0 -5.5,2.462434 -5.5,5.5 0,0.168742 0.01052,0.335131 0.02539,0.5 0.252886,-2.802974 2.605785,-5 5.474609,-5 0.507518,0.0021 1.012307,0.07437 1.5,0.214844 v -1 C 24.512307,15.074365 24.007518,15.002064 23.5,15 Z m -15,3 C 5.4624339,18 3,20.462434 3,23.5 3,23.668742 3.010516,23.835131 3.0253906,24 3.2782771,21.197026 5.6311762,19 8.5,19 c 0.5075177,0.0021 1.0123074,0.07437 1.5,0.214844 v -1 C 9.5123074,18.074365 9.0075177,18.002064 8.5,18 Z"/>
  </g>
 </g>
</svg>
